X: 4727
T: Boys Of Ballisodare, The
R: slip jig
M: 9/8
K: Gmajor
"G" D2 G G2 A B2 d|"C" ege d2 e g3|"G" D2 G G2 B d2 B|"Am"AGA B2 G "D"E2 G|
"G" D2 G G2 A B2 d|"C" ege d2 e "D"g2 a|"Em"b2 a g2 e d2 B|"Am"AGA B2 G E2 G:|
"C" B2 d d2 B d2 B|"D" dBd e2 f "G"g3|"C" B2 d d2 B d2 B|"Am"AGA B2 G E2 G|
"Am"B2 d d2 B d2 B|"Bm"dBd e2 f g2 a|"C" b2 a g2 e d2 B|"D" AGA B2 G E2 G:|

